X:22
T:Pray Goody. WCF.022
M:4/4
L:1/8
Q:1/4=100
S:Wm Clarke MS, Feltwell, 1858
O:England
A:Norfolk
N:Should have a fine sign at end of bar 8.
Z:Transcription Lyn Law 04/2006
K:G
d4(cB)(AG)|(BA)(GF) GB(df)|\
g2(fe) (dB)(AG)|(gd)cB B2A2|!
d4(cB)(AG)|(BA)(GF) (GB)(df)|\
g2(fe) (dB)(ec)|Bd(cA)G4||!
g2d2e2d2|(gB).B.B c2B2|\
(gd).d.d (gd).d.d|(gd).c.BB2{c^ced}G2{B=B^B}|]

